Origami/64x64/apps/fslint_icon.svg

<svg width="64" height="64" version="1" xmlns="http://www.w3.org/2000/svg">
 <path d="m10 56v2c0 1.662 1.338 3 3 3h38c1.662 0 3-1.338 3-3v-2c0 1.662-1.338 3-3 3h-38c-1.662 0-3-1.338-3-3z" style="opacity:.2"/>
 <path d="m54 57v-50c0-1.662-1.338-3-3-3h-38c-1.662 0-3 1.338-3 3v50c0 1.662 1.338 3 3 3h38c1.662 0 3-1.338 3-3z" style="fill:#cccccc"/>
 <path d="m13 4c-1.662 0-3 1.338-3 3v1c0-1.662 1.338-3 3-3h38c1.662 0 3 1.338 3 3v-1c0-1.662-1.338-3-3-3h-38z" style="fill:#ffffff;opacity:.1"/>
 <circle transform="matrix(.70710678 -.70710678 .70710678 .70710678 0 0)" cx="-.03" cy="45.285" r="12" style="fill:#484848"/>
 <rect transform="matrix(.70710678 -.70710678 .70710678 .70710678 0 0)" x="-2.03" y="53.28" width="4" height="16" rx="2" ry="2" style="fill:#484848"/>
 <path d="m37.646 27.354c-3.1412-3.1412-8.1534-3.1376-11.291 0-3.1374 3.1374-3.1412 8.15 0 11.291 3.1412 3.1412 8.1534 3.1376 11.291 0s3.1412-8.15 0-11.291z" style="opacity:.2"/>
 <path d="m37.646 26.354c-3.1412-3.1412-8.1534-3.1376-11.291 0-3.1374 3.1374-3.1412 8.15 0 11.291 3.1412 3.1412 8.1534 3.1376 11.291 0s3.1412-8.15 0-11.291z" style="fill:#5d99ff"/>
</svg>

<svg xmlns="http://www.w3.org/2000/svg" width="64" height="64" version="1">
 <path style="opacity:0.2" d="m 10,56 0,2 c 0,1.662 1.338,3 3,3 l 38,0 c 1.662,0 3,-1.338 3,-3 l 0,-2 c 0,1.662 -1.338,3 -3,3 l -38,0 c -1.662,0 -3,-1.338 -3,-3 z"/>
 <path style="fill:#cccccc" d="M 54,57 54,7 C 54,5.338 52.662,4 51,4 L 13,4 c -1.662,0 -3,1.338 -3,3 l 0,50 c 0,1.662 1.338,3 3,3 l 38,0 c 1.662,0 3,-1.338 3,-3 z"/>
 <path style="opacity:0.1;fill:#ffffff" d="M 13 4 C 11.338 4 10 5.338 10 7 L 10 8 C 10 6.338 11.338 5 13 5 L 51 5 C 52.662 5 54 6.338 54 8 L 54 7 C 54 5.338 52.662 4 51 4 L 13 4 z"/>
 <circle style="fill:#484848" cx="-.03" cy="45.285" r="12" transform="matrix(0.70710678,-0.70710678,0.70710678,0.70710678,0,0)"/>
 <rect style="fill:#484848" width="4" height="16" x="-2.03" y="53.28" rx="2" ry="2" transform="matrix(0.70710678,-0.70710678,0.70710678,0.70710678,0,0)"/>
 <path style="opacity:0.2" d="m 37.646,27.354 c -3.1412,-3.1412 -8.1534,-3.1376 -11.291,0 -3.1374,3.1374 -3.1412,8.15 0,11.291 3.1412,3.1412 8.1534,3.1376 11.291,0 3.1376,-3.1376 3.1412,-8.15 0,-11.291 z"/>
 <path style="fill:#5d99ff" d="m 37.646,26.354 c -3.1412,-3.1412 -8.1534,-3.1376 -11.291,0 -3.1374,3.1374 -3.1412,8.15 0,11.291 3.1412,3.1412 8.1534,3.1376 11.291,0 3.1376,-3.1376 3.1412,-8.15 0,-11.291 z"/>
</svg>
